!!!Genre:	Freylekhs
!!!Mode:	Freygish
!!!Listening/dance:	dance
!!!:	*c:dor
!!!One_Mode:	no
**kern
*I"P1
*clefG2
*k[b-e-]
*>bM
*G:frey
=10||
*k[b-e-a-]
16bnLL
16ccJJ
4dd
8dd
=11
(8qff/
8ee-L)
8ddJ
8.ccL
16ccJk
=12
16bnLL
16cc
16dd
16ee-JJ
16ff#XLL
16gg
16ff#
16ee-JJ
=13
16ff#XLL
16gg
16ff#
16ee-JJ
(16ee-LL
16dd)
(16dd
16ccJJ)
=14
16bnLL
16ccJJ
4dd
8dd
=15
(8qffn/
8ee-L)
8ddJ
8.ccL
16ccJk
=16
16bnLL
16cc
16b
16a-JJ
16gLL
16f
16g
16a-JJ
=17
4g
8gg
8r
==
*-
